X: 18304
T: Humours Of Tulla, The
R: reel
M: 4/4
K: Dmajor
d2Ad BdAB|d2fd edBc|d2Ad BdAd|(3Bcd ef g2fe|
d2Ad BdAB|d2fd edBc|d2Ad BdAd|(3Bcd ef g2 fg||
af f2 df f2|af f2 ge e2|af f2 dfed|(3Bcd ef g2fg|
af f2 df f2|af f2 ge e2|af f2 dfed|(3Bcd ef g2 fe||

